X: 49
T:Webley Twizzle (Bampton)
M:6/8
L:1/8
O:England; Oxfordshire; Bampton.
B:Lionel Bacon, A Handbook of Morris Dances
Z:http://www.themorrisring.org/music/handbook-morris-dances
P:A(A2B2)4
K:G
P:A
D|GFG AGA|BdB AGA|BAG EAG|FEF G2||
P:B
B|d2e dBG|d2e dBG|EAG FED|BAG EAG|FEF G2||

